X:225
T: Outdoor Relief
S: "The Roche Collection of Traditional Irish Music" [I/63/161]
L: 1/8
M: 4/4
R: reel
K: G
BAFD D2 FD | D2 FA BEED | BAFD D2 EF |1 ABde fedB :|2 ABde fd d2 ||
a2 af a2 af | g2 ga be e2 | a2 af gedB | ABde fd d2 |
a2 af a2 af | gfga be e2 | faef d2 dB | ABde fed>B |]

